X: 3515
T: Biddy The Bold
R: jig
M: 6/8
K: Amajor
|:e|EAc e2 f|ecA a2 f|ecA EAc|dBB B2 c|
EAc e2 f|ecA a2 f|ecA EAc|BAA A2:|
e|efe a2 g|bag fga|ecA EAc|dBB B2 B|
efe a2 g|bag fga|ecA EAc|BAA A2||

